;FLAVOR:Marlin
;TIME:12004
;Filament used: 22.1522m
;Layer height: 0.4
;MINX:91.4
;MINY:91.4
;MINZ:0.3
;MAXX:148.6
;MAXY:148.6
;MAXZ:49.9
;Generated with Cura_SteamEngine 5.2.1
M140 S60
M105
M190 S60
M104 S240
M105
M109 S240
M82 ;absolute extrusion mode
G21 ;metric values
G90 ;absolute positioning
M82 ;set extruder to absolute mode
M107 ;start with the fan off
G28 X0 Y0 ;move X/Y to min endstops
G28 Z0 ;move Z to min endstops
G1 Z30.0 F9000 ;move the gentry up 30mm
G92 E0 ;zero the extruded length
G1 F200 E10 ;extrude 10mm of feed stock
G92 E0 ;zero the extruded length again
G1 F9000
;Put printing message on LCD screen
M117 Printing...
G92 E0
G92 E0
G1 F2100 E-4.5
;LAYER_COUNT:125
;LAYER:0
M107
G0 F3600 X92.397 Y92.531 Z0.3
;TYPE:SKIRT
G1 F2100 E0
G1 F1200 X92.794 Y92.171 E0.02861
G1 X93.241 Y91.873 E0.05729
G1 X93.726 Y91.645 E0.0859
G1 X94.24 Y91.492 E0.11452
G1 X94.981 Y91.401 E0.15438
G1 X144.345 Y91.4 E2.78955
G1 X145.043 Y91.41 E2.82682
G1 X145.577 Y91.458 E2.85544
G1 X146.098 Y91.584 E2.88405
G1 X146.595 Y91.787 E2.91271
G1 X147.056 Y92.061 E2.94134
G1 X147.471 Y92.4 E2.96995
G1 X147.831 Y92.798 E2.99859
G1 X148.128 Y93.244 E3.0272
G1 X148.356 Y93.73 E3.05585
G1 X148.508 Y94.244 E3.08447
G1 X148.599 Y94.982 E3.12416
G1 X148.6 Y144.309 E5.75736
G1 X148.591 Y145.036 E5.79617
G1 X148.544 Y145.57 E5.82479
G1 X148.419 Y146.091 E5.85339
G1 X148.217 Y146.588 E5.88203
G1 X147.944 Y147.05 E5.91068
G1 X147.606 Y147.466 E5.93929
G1 X147.209 Y147.827 E5.96794
G1 X146.763 Y148.125 E5.99657
G1 X146.278 Y148.353 E6.02518
G1 X145.764 Y148.507 E6.05382
G1 X145.019 Y148.599 E6.09389
G1 X95.661 Y148.6 E8.72875
G1 X94.963 Y148.591 E8.76601
G1 X94.428 Y148.544 E8.79468
G1 X93.907 Y148.418 E8.8233
G1 X93.41 Y148.216 E8.85193
G1 X92.949 Y147.943 E8.88054
G1 X92.533 Y147.604 E8.90918
G1 X92.172 Y147.208 E8.93779
G1 X91.874 Y146.762 E8.96642
G1 X91.646 Y146.276 E8.99508
G1 X91.493 Y145.762 E9.02371
G1 X91.401 Y145.015 E9.06389
G1 X91.4 Y95.625 E11.70045
G1 X91.409 Y94.96 E11.73595
G1 X91.457 Y94.426 E11.76457
G1 X91.583 Y93.905 E11.79319
G1 X91.785 Y93.408 E11.82182
G1 X92.058 Y92.947 E11.85043
G1 X92.397 Y92.531 E11.87907
G0 F3600 X92.789 Y92.704
G1 F1200 X93.18 Y92.383 E11.90608
G1 X93.617 Y92.128 E11.93309
G1 X94.088 Y91.944 E11.96008
G1 X94.582 Y91.838 E11.98705
G1 X95.027 Y91.801 E12.01089
G1 X144.339 Y91.8 E14.64329
G1 X145.037 Y91.81 E14.68055
G1 X145.54 Y91.857 E14.70752
G1 X146.03 Y91.983 E14.73453
G1 X146.494 Y92.185 E14.76154
G1 X146.92 Y92.457 E14.78853
G1 X147.298 Y92.792 E14.81549
G1 X147.618 Y93.183 E14.84246
G1 X147.873 Y93.62 E14.86947
G1 X148.056 Y94.091 E14.89644
G1 X148.163 Y94.585 E14.92343
G1 X148.199 Y95.24 E14.95844
G1 X148.2 Y144.304 E17.5776
G1 X148.191 Y145.031 E17.61642
G1 X148.145 Y145.534 E17.64338
G1 X148.02 Y146.024 E17.67037
G1 X147.819 Y146.488 E17.69737
G1 X147.548 Y146.915 E17.72437
G1 X147.213 Y147.294 E17.75137
G1 X146.823 Y147.615 E17.77833
G1 X146.387 Y147.871 E17.80532
G1 X145.916 Y148.054 E17.8323
G1 X145.422 Y148.162 E17.85929
G1 X144.76 Y148.199 E17.89469
G1 X95.666 Y148.2 E20.51545
G1 X94.968 Y148.191 E20.55271
G1 X94.464 Y148.144 E20.57973
G1 X93.974 Y148.019 E20.60673
G1 X93.51 Y147.818 E20.63372
G1 X93.084 Y147.547 E20.66067
G1 X92.705 Y147.212 E20.68768
G1 X92.384 Y146.821 E20.71468
G1 X92.129 Y146.385 E20.74165
G1 X91.945 Y145.914 E20.76864
G1 X91.838 Y145.42 E20.79562
G1 X91.801 Y144.967 E20.81988
G1 X91.8 Y95.631 E23.45356
G1 X91.809 Y94.966 E23.48907
G1 X91.856 Y94.462 E23.51609
G1 X91.982 Y93.973 E23.54304
G1 X92.183 Y93.509 E23.57004
G1 X92.454 Y93.082 E23.59704
G1 X92.789 Y92.704 E23.624
G1 F2100 E19.124
;MESH:xyzCalibration_cube.stl
G0 F3600 X95.414 Y94.335
G0 X95 Y95
;INSERT CODE HERE


;END OF INSERTED CODE
;TIME_ELAPSED:12004.618198
M140 S0
M107
M104 S0 ;extruder heater off
M140 S0 ;heated bed heater off
G91 ;relative positioning
G1 E-1 F300  ;retract the filament a bit before lifting the nozzle, to release some of the pressure
G1 Z+0.5 E-5 X-20 Y-20 F9000 ;move Z up a bit and retract filament even more
G90 ;absolute positioning
G1 X0 Y220 F3600 ;move extruder out of the way by moving the baseplate to the front for easier access to printed object
M84 ;steppers off
M82 ;absolute extrusion mode
M104 S0
;End of Gcode
;SETTING_3 {"global_quality": "[general]\\nversion = 4\\nname = Coarse #2\\ndefi
;SETTING_3 nition = tevo_tarantula_pro\\n\\n[metadata]\\ntype = quality_changes\
;SETTING_3 \nquality_type = coarse\\nsetting_version = 20\\n\\n[values]\\nadhesi
;SETTING_3 on_type = skirt\\nmaterial_bed_temperature = 60.0\\n\\n", "extruder_q
;SETTING_3 uality": ["[general]\\nversion = 4\\nname = Coarse #2\\ndefinition = 
;SETTING_3 tevo_tarantula_pro\\n\\n[metadata]\\ntype = quality_changes\\nquality
;SETTING_3 _type = coarse\\nsetting_version = 20\\nposition = 0\\n\\n[values]\\n
;SETTING_3 brim_width = 4.0\\ncool_fan_speed = 50.0\\ninfill_overlap = -10.0\\ni
;SETTING_3 nfill_sparse_density = 30.0\\nironing_enabled = True\\nmaterial_flow 
;SETTING_3 = 107.0\\nmaterial_print_temperature = 240.0\\noptimize_wall_printing
;SETTING_3 _order = True\\nspeed_print = 40.0\\ntop_bottom_thickness = 1.2\\nwal
;SETTING_3 l_thickness = 1.2\\n\\n"]}
