;FLAVOR:Marlin
;TIME:12004
;Filament used: 22.1522m
;Layer height: 0.4
;MINX:91.4
;MINY:91.4
;MINZ:0.3
;MAXX:148.6
;MAXY:148.6
;MAXZ:49.9
;Generated with Cura_SteamEngine 5.2.1
M140 S60
M105
M190 S60
M104 S240
M105
M109 S240
M82 ;absolute extrusion mode
G21 ;metric values
G90 ;absolute positioning
M82 ;set extruder to absolute mode
M107 ;start with the fan off
G28 X0 Y0 ;move X/Y to min endstops
G28 Z0 ;move Z to min endstops
G1 Z30.0 F9000 ;move the gentry up 30mm
G92 E0 ;zero the extruded length
G1 F200 E10 ;extrude 10mm of feed stock
G92 E0 ;zero the extruded length again
G1 F9000
;Put printing message on LCD screen
M117 Printing...
G92 E0
G92 E0
G1 F2100 E-4.5
;LAYER_COUNT:125
;LAYER:0
M107
G0 F3600 X92.397 Y92.531 Z0.3
;TYPE:SKIRT
G1 F2100 E0
G1 F1200 X92.794 Y92.171 E0.02861
G1 X93.241 Y91.873 E0.05729
G1 X93.726 Y91.645 E0.0859
G1 X94.24 Y91.492 E0.11452
G1 X94.981 Y91.401 E0.15438
G1 X144.345 Y91.4 E2.78955
G1 X145.043 Y91.41 E2.82682
G1 X145.577 Y91.458 E2.85544
G1 X146.098 Y91.584 E2.88405
G1 X146.595 Y91.787 E2.91271
G1 X147.056 Y92.061 E2.94134
G1 X147.471 Y92.4 E2.96995
G1 X147.831 Y92.798 E2.99859
G1 X148.128 Y93.244 E3.0272
G1 X148.356 Y93.73 E3.05585
G1 X148.508 Y94.244 E3.08447
G1 X148.599 Y94.982 E3.12416
G1 X148.6 Y144.309 E5.75736
G1 X148.591 Y145.036 E5.79617
G1 X148.544 Y145.57 E5.82479
G1 X148.419 Y146.091 E5.85339
G1 X148.217 Y146.588 E5.88203
G1 X147.944 Y147.05 E5.91068
G1 X147.606 Y147.466 E5.93929
G1 X147.209 Y147.827 E5.96794
G1 X146.763 Y148.125 E5.99657
G1 X146.278 Y148.353 E6.02518
G1 X145.764 Y148.507 E6.05382
G1 X145.019 Y148.599 E6.09389
G1 X95.661 Y148.6 E8.72875
G1 X94.963 Y148.591 E8.76601
G1 X94.428 Y148.544 E8.79468
G1 X93.907 Y148.418 E8.8233
G1 X93.41 Y148.216 E8.85193
G1 X92.949 Y147.943 E8.88054
G1 X92.533 Y147.604 E8.90918
G1 X92.172 Y147.208 E8.93779
G1 X91.874 Y146.762 E8.96642
G1 X91.646 Y146.276 E8.99508
G1 X91.493 Y145.762 E9.02371
G1 X91.401 Y145.015 E9.06389
G1 X91.4 Y95.625 E11.70045
G1 X91.409 Y94.96 E11.73595
G1 X91.457 Y94.426 E11.76457
G1 X91.583 Y93.905 E11.79319
G1 X91.785 Y93.408 E11.82182
G1 X92.058 Y92.947 E11.85043
G1 X92.397 Y92.531 E11.87907
G0 F3600 X92.789 Y92.704
G1 F1200 X93.18 Y92.383 E11.90608
G1 X93.617 Y92.128 E11.93309
G1 X94.088 Y91.944 E11.96008
G1 X94.582 Y91.838 E11.98705
G1 X95.027 Y91.801 E12.01089
G1 X144.339 Y91.8 E14.64329
G1 X145.037 Y91.81 E14.68055
G1 X145.54 Y91.857 E14.70752
G1 X146.03 Y91.983 E14.73453
G1 X146.494 Y92.185 E14.76154
G1 X146.92 Y92.457 E14.78853
G1 X147.298 Y92.792 E14.81549
G1 X147.618 Y93.183 E14.84246
G1 X147.873 Y93.62 E14.86947
G1 X148.056 Y94.091 E14.89644
G1 X148.163 Y94.585 E14.92343
G1 X148.199 Y95.24 E14.95844
G1 X148.2 Y144.304 E17.5776
G1 X148.191 Y145.031 E17.61642
G1 X148.145 Y145.534 E17.64338
G1 X148.02 Y146.024 E17.67037
G1 X147.819 Y146.488 E17.69737
G1 X147.548 Y146.915 E17.72437
G1 X147.213 Y147.294 E17.75137
G1 X146.823 Y147.615 E17.77833
G1 X146.387 Y147.871 E17.80532
G1 X145.916 Y148.054 E17.8323
G1 X145.422 Y148.162 E17.85929
G1 X144.76 Y148.199 E17.89469
G1 X95.666 Y148.2 E20.51545
G1 X94.968 Y148.191 E20.55271
G1 X94.464 Y148.144 E20.57973
G1 X93.974 Y148.019 E20.60673
G1 X93.51 Y147.818 E20.63372
G1 X93.084 Y147.547 E20.66067
G1 X92.705 Y147.212 E20.68768
G1 X92.384 Y146.821 E20.71468
G1 X92.129 Y146.385 E20.74165
G1 X91.945 Y145.914 E20.76864
G1 X91.838 Y145.42 E20.79562
G1 X91.801 Y144.967 E20.81988
G1 X91.8 Y95.631 E23.45356
G1 X91.809 Y94.966 E23.48907
G1 X91.856 Y94.462 E23.51609
G1 X91.982 Y93.973 E23.54304
G1 X92.183 Y93.509 E23.57004
G1 X92.454 Y93.082 E23.59704
G1 X92.789 Y92.704 E23.624
G1 F2100 E19.124
;MESH:xyzCalibration_cube.stl
G0 F3600 X95.414 Y94.335
G0 X95.414 Y95.414
G0 X96 Y96
;TYPE:WALL-INNER
G1 F2100 E23.624
G1 F1200 X96 Y144 E26.18636
G1 X144 Y144 E28.74872
G1 X144 Y120 E30.0299
G1 X144 Y96 E31.31108
G1 X96 Y96 E33.87344
G0 F3600 X95.6 Y95.6
G1 F1200 X95.6 Y144.4 E36.47851
G1 X144.4 Y144.4 E39.08358
G1 X144.4 Y120 E40.38611
G1 X144.4 Y95.6 E41.68864
G1 X95.6 Y95.6 E44.29371
G0 F3600 X95.2 Y95.2
;TYPE:WALL-OUTER
G1 F1200 X95.2 Y144.8 E46.94148
G1 X144.8 Y144.8 E49.58925
G1 X144.8 Y120 E50.91314
G1 X144.8 Y95.2 E52.23703
G1 X95.2 Y95.2 E54.8848
G0 F3600 X95.2 Y95.4
G0 X95.87 Y95.87
G0 X96.38 Y96.38
;TYPE:SKIN
G1 F1200 X96.38 Y143.62 E57.40659
G1 X143.62 Y143.62 E59.92838
G1 X143.62 Y120 E61.18928
G1 X143.62 Y96.38 E62.45017
G1 X96.38 Y96.38 E64.97196
G0 F3600 X96.1 Y96.38
G0 X143.828 Y96.172
G0 X143.9 Y97.033
G0 X143.419 Y97.033
G1 F1200 X142.966 Y96.58 E65.00616
G0 F3600 X142.4 Y96.58
G1 F1200 X143.419 Y97.599 E65.08309
G0 F3600 X143.419 Y98.164
G1 F1200 X141.835 Y96.58 E65.20267
G0 F3600 X141.269 Y96.58
G1 F1200 X143.419 Y98.73 E65.36498
G0 F3600 X143.419 Y99.296
G1 F1200 X140.703 Y96.58 E65.57003
G0 F3600 X140.137 Y96.58
G1 F1200 X143.419 Y99.861 E65.81776
G0 F3600 X143.419 Y100.427
G1 F1200 X139.572 Y96.58 E66.10819
G0 F3600 X139.006 Y96.58
G1 F1200 X143.419 Y100.993 E66.44134
G0 F3600 X143.419 Y101.558
G1 F1200 X138.44 Y96.58 E66.81719
G0 F3600 X137.875 Y96.58
G1 F1200 X143.419 Y102.124 E67.23573
G0 F3600 X143.419 Y102.69
G1 F1200 X137.309 Y96.58 E67.697
G0 F3600 X136.743 Y96.58
G1 F1200 X143.419 Y103.255 E68.20096
G0 F3600 X143.419 Y103.821
G1 F1200 X136.178 Y96.58 E68.74762
G0 F3600 X135.612 Y96.58
G1 F1200 X143.419 Y104.387 E69.337
G0 F3600 X143.419 Y104.953
G1 F1200 X135.046 Y96.58 E69.96912
G0 F3600 X134.481 Y96.58
G1 F1200 X143.419 Y105.518 E70.64388
G0 F3600 X143.419 Y106.084
G1 F1200 X133.915 Y96.58 E71.36138
G0 F3600 X133.349 Y96.58
G1 F1200 X143.419 Y106.65 E72.12161
G0 F3600 X143.419 Y107.215
G1 F1200 X132.784 Y96.58 E72.92449
G0 F3600 X132.218 Y96.58
G1 F1200 X143.419 Y107.781 E73.7701
G0 F3600 X143.419 Y108.347
G1 F1200 X131.652 Y96.58 E74.65844
G0 F3600 X131.086 Y96.58
G1 F1200 X143.419 Y108.912 E75.58948
G0 F3600 X143.419 Y109.478
G1 F1200 X130.521 Y96.58 E76.5632
G0 F3600 X129.955 Y96.58
G1 F1200 X143.419 Y110.044 E77.57966
G0 F3600 X143.419 Y110.609
G1 F1200 X129.389 Y96.58 E78.6388
G0 F3600 X128.824 Y96.58
G1 F1200 X143.419 Y111.175 E79.74064
G0 F3600 X143.419 Y111.741
G1 F1200 X128.258 Y96.58 E80.88521
G0 F3600 X127.692 Y96.58
G1 F1200 X143.419 Y112.306 E82.07247
G0 F3600 X143.419 Y112.872
G1 F1200 X127.127 Y96.58 E83.30242
G0 F3600 X126.561 Y96.58
G1 F1200 X143.419 Y113.438 E84.57511
G0 F3600 X143.419 Y114.003
G1 F1200 X125.995 Y96.58 E85.89048
G0 F3600 X125.43 Y96.58
G1 F1200 X143.419 Y114.569 E87.24855
G0 F3600 X143.419 Y115.135
G1 F1200 X124.864 Y96.58 E88.64934
G0 F3600 X124.298 Y96.58
G1 F1200 X143.419 Y115.701 E90.09287
G0 F3600 X143.419 Y116.266
G1 F1200 X123.733 Y96.58 E91.57905
G0 F3600 X123.167 Y96.58
G1 F1200 X143.419 Y116.832 E93.10796
G0 F3600 X143.419 Y117.398
G1 F1200 X122.601 Y96.58 E94.6796
G0 F3600 X122.036 Y96.58
G1 F1200 X143.419 Y117.963 E96.2939
G0 F3600 X143.419 Y118.529
G1 F1200 X121.47 Y96.58 E97.95092
G0 F3600 X120.904 Y96.58
G1 F1200 X143.419 Y119.095 E99.65067
G0 F3600 X143.419 Y119.66
G1 F1200 X120.338 Y96.58 E101.39312
G0 F3600 X119.773 Y96.58
G1 F1200 X143.419 Y120.226 E103.17826
G0 F3600 X143.419 Y120.792
G1 F1200 X119.207 Y96.58 E105.00612
G0 F3600 X118.641 Y96.58
G1 F1200 X143.419 Y121.357 E106.87668
G0 F3600 X143.419 Y121.923
G1 F1200 X118.076 Y96.58 E108.78993
G0 F3600 X117.51 Y96.58
G1 F1200 X143.419 Y122.489 E110.74592
G0 F3600 X143.419 Y123.054
G1 F1200 X116.944 Y96.58 E112.74459
G0 F3600 X116.379 Y96.58
G1 F1200 X143.419 Y123.62 E114.78595
G0 F3600 X143.419 Y124.186
G1 F1200 X115.813 Y96.58 E116.87005
G0 F3600 X115.247 Y96.58
G1 F1200 X143.419 Y124.752 E118.99687
G0 F3600 X143.419 Y125.317
G1 F1200 X114.682 Y96.58 E121.16635
G0 F3600 X114.116 Y96.58
G1 F1200 X143.419 Y125.883 E123.37856
G0 F3600 X143.419 Y126.449
G1 F1200 X113.55 Y96.58 E125.6335
G0 F3600 X112.985 Y96.58
G1 F1200 X143.419 Y127.014 E127.93109
G0 F3600 X143.419 Y127.58
G1 F1200 X112.419 Y96.58 E130.27142
G0 F3600 X111.853 Y96.58
G1 F1200 X143.419 Y128.146 E132.65447
G0 F3600 X143.419 Y128.711
G1 F1200 X111.288 Y96.58 E135.08018
G0 F3600 X110.722 Y96.58
G1 F1200 X143.419 Y129.277 E137.54861
G0 F3600 X143.419 Y129.843
G1 F1200 X110.156 Y96.58 E140.05978
G0 F3600 X109.59 Y96.58
G1 F1200 X143.419 Y130.408 E142.61364
G0 F3600 X143.419 Y130.974
G1 F1200 X109.025 Y96.58 E145.21019
G0 F3600 X108.459 Y96.58
G1 F1200 X143.419 Y131.54 E147.84947
G0 F3600 X143.419 Y132.105
G1 F1200 X107.893 Y96.58 E150.53144
G0 F3600 X107.328 Y96.58
G1 F1200 X143.419 Y132.671 E153.2561
G0 F3600 X143.419 Y133.237
G1 F1200 X106.762 Y96.58 E156.0235
G0 F3600 X106.196 Y96.58
G1 F1200 X143.419 Y133.802 E158.83358
G0 F3600 X143.419 Y134.368
G1 F1200 X105.631 Y96.58 E161.68636
G0 F3600 X105.065 Y96.58
G1 F1200 X143.419 Y134.934 E164.58187
G0 F3600 X143.419 Y135.5
G1 F1200 X104.499 Y96.58 E167.52011
G0 F3600 X103.934 Y96.58
G1 F1200 X143.419 Y136.065 E170.501
G0 F3600 X143.419 Y136.631
G1 F1200 X103.368 Y96.58 E173.52462
G0 F3600 X102.802 Y96.58
G1 F1200 X143.419 Y137.197 E176.59097
G0 F3600 X143.419 Y137.762
G1 F1200 X102.237 Y96.58 E179.69998
G0 F3600 X101.671 Y96.58
G1 F1200 X143.419 Y138.328 E182.85171
G0 F3600 X143.419 Y138.894
G1 F1200 X101.105 Y96.58 E186.04618
G0 F3600 X100.539 Y96.58
G1 F1200 X143.419 Y139.459 E189.28333
G0 F3600 X143.419 Y140.025
G1 F1200 X99.974 Y96.58 E192.56318
G0 F3600 X99.408 Y96.58
G1 F1200 X143.419 Y140.591 E195.88576
G0 F3600 X143.419 Y141.156
G1 F1200 X98.842 Y96.58 E199.25103
G0 F3600 X98.277 Y96.58
G1 F1200 X143.419 Y141.722 E202.65899
G0 F3600 X143.419 Y142.288
G1 F1200 X97.711 Y96.58 E206.10969
G0 F3600 X97.145 Y96.58
G1 F1200 X143.419 Y142.853 E209.60307
G0 F3600 X143.419 Y143.419
G1 F1200 X96.579 Y96.579 E213.13922
G0 F3600 X96.579 Y97.145
G1 F1200 X142.853 Y143.418 E216.63261
G0 F3600 X142.287 Y143.418
G1 F1200 X96.579 Y97.71 E220.0833
G0 F3600 X96.579 Y98.276
G1 F1200 X141.721 Y143.418 E223.49126
G0 F3600 X141.156 Y143.418
G1 F1200 X96.579 Y98.842 E226.85653
G0 F3600 X96.579 Y99.407
G1 F1200 X140.59 Y143.418 E230.17911
G0 F3600 X140.024 Y143.418
G1 F1200 X96.579 Y99.973 E233.45896
G0 F3600 X96.579 Y100.539
G1 F1200 X139.459 Y143.418 E236.69612
G0 F3600 X138.893 Y143.418
G1 F1200 X96.579 Y101.104 E239.89058
G0 F3600 X96.579 Y101.67
G1 F1200 X138.327 Y143.418 E243.04232
G0 F3600 X137.762 Y143.418
G1 F1200 X96.579 Y102.236 E246.15136
G0 F3600 X96.579 Y102.802
G1 F1200 X137.196 Y143.418 E249.21767
G0 F3600 X136.63 Y143.418
G1 F1200 X96.579 Y103.367 E252.2413
G0 F3600 X96.579 Y103.933
G1 F1200 X136.065 Y143.418 E255.22222
G0 F3600 X135.499 Y143.418
G1 F1200 X96.579 Y104.499 E258.16042
G0 F3600 X96.579 Y105.064
G1 F1200 X134.933 Y143.418 E261.05593
G0 F3600 X134.367 Y143.418
G1 F1200 X96.579 Y105.63 E263.90871
G0 F3600 X96.579 Y106.196
G1 F1200 X133.802 Y143.418 E266.7188
G0 F3600 X133.236 Y143.418
G1 F1200 X96.579 Y106.761 E269.48619
G0 F3600 X96.579 Y107.327
G1 F1200 X132.67 Y143.418 E272.21085
G0 F3600 X132.105 Y143.418
G1 F1200 X96.579 Y107.893 E274.89283
G0 F3600 X96.579 Y108.458
G1 F1200 X131.539 Y143.418 E277.53211
G0 F3600 X130.973 Y143.418
G1 F1200 X96.579 Y109.024 E280.12866
G0 F3600 X96.579 Y109.59
G1 F1200 X130.408 Y143.418 E282.68251
G0 F3600 X129.842 Y143.418
G1 F1200 X96.579 Y110.155 E285.19368
G0 F3600 X96.579 Y110.721
G1 F1200 X129.276 Y143.418 E287.66212
G0 F3600 X128.711 Y143.418
G1 F1200 X96.579 Y111.287 E290.08786
G0 F3600 X96.579 Y111.852
G1 F1200 X128.145 Y143.418 E292.47091
G0 F3600 X127.579 Y143.418
G1 F1200 X96.579 Y112.418 E294.81124
G0 F3600 X96.579 Y112.984
G1 F1200 X127.014 Y143.418 E297.10887
G0 F3600 X126.448 Y143.418
G1 F1200 X96.579 Y113.55 E299.36377
G0 F3600 X96.579 Y114.115
G1 F1200 X125.882 Y143.418 E301.57598
G0 F3600 X125.316 Y143.418
G1 F1200 X96.579 Y114.681 E303.74546
G0 F3600 X96.579 Y115.247
G1 F1200 X124.751 Y143.418 E305.87224
G0 F3600 X124.185 Y143.418
G1 F1200 X96.579 Y115.812 E307.95634
G0 F3600 X96.579 Y116.378
G1 F1200 X123.619 Y143.418 E309.9977
G0 F3600 X123.054 Y143.418
G1 F1200 X96.579 Y116.944 E311.99638
G0 F3600 X96.579 Y117.509
G1 F1200 X122.488 Y143.418 E313.95236
G0 F3600 X121.922 Y143.418
G1 F1200 X96.579 Y118.075 E315.86561
G0 F3600 X96.579 Y118.641
G1 F1200 X121.357 Y143.418 E317.73617
G0 F3600 X120.791 Y143.418
G1 F1200 X96.579 Y119.206 E319.56404
G0 F3600 X96.579 Y119.772
G1 F1200 X120.225 Y143.418 E321.34917
G0 F3600 X119.66 Y143.418
G1 F1200 X96.579 Y120.338 E323.09162
G0 F3600 X96.579 Y120.903
G1 F1200 X119.094 Y143.418 E324.79137
G0 F3600 X118.528 Y143.418
G1 F1200 X96.579 Y121.469 E326.4484
G0 F3600 X96.579 Y122.035
G1 F1200 X117.963 Y143.418 E328.06273
G0 F3600 X117.397 Y143.418
G1 F1200 X96.579 Y122.601 E329.63433
G0 F3600 X96.579 Y123.166
G1 F1200 X116.831 Y143.418 E331.16324
G0 F3600 X116.266 Y143.418
G1 F1200 X96.579 Y123.732 E332.64946
G0 F3600 X96.579 Y124.298
G1 F1200 X115.7 Y143.418 E334.09295
G0 F3600 X115.134 Y143.418
G1 F1200 X96.579 Y124.863 E335.49374
G0 F3600 X96.579 Y125.429
G1 F1200 X114.568 Y143.418 E336.85181
G0 F3600 X114.003 Y143.418
G1 F1200 X96.579 Y125.995 E338.16719
G0 F3600 X96.579 Y126.56
G1 F1200 X113.437 Y143.418 E339.43987
G0 F3600 X112.871 Y143.418
G1 F1200 X96.579 Y127.126 E340.66982
G0 F3600 X96.579 Y127.692
G1 F1200 X112.306 Y143.418 E341.85708
G0 F3600 X111.74 Y143.418
G1 F1200 X96.579 Y128.257 E343.00165
G0 F3600 X96.579 Y128.823
G1 F1200 X111.174 Y143.418 E344.10349
G0 F3600 X110.609 Y143.418
G1 F1200 X96.579 Y129.389 E345.16264
G0 F3600 X96.579 Y129.954
G1 F1200 X110.043 Y143.418 E346.17909
G0 F3600 X109.477 Y143.418
G1 F1200 X96.579 Y130.52 E347.15282
G0 F3600 X96.579 Y131.086
G1 F1200 X108.912 Y143.418 E348.08385
G0 F3600 X108.346 Y143.418
G1 F1200 X96.579 Y131.651 E348.97219
G0 F3600 X96.579 Y132.217
G1 F1200 X107.78 Y143.418 E349.8178
G0 F3600 X107.215 Y143.418
G1 F1200 X96.579 Y132.783 E350.62072
G0 F3600 X96.579 Y133.349
G1 F1200 X106.649 Y143.418 E351.38091
G0 F3600 X106.083 Y143.418
G1 F1200 X96.579 Y133.914 E352.09841
G0 F3600 X96.579 Y134.48
G1 F1200 X105.518 Y143.418 E352.77321
G0 F3600 X104.952 Y143.418
G1 F1200 X96.579 Y135.046 E353.40529
G0 F3600 X96.579 Y135.611
G1 F1200 X104.386 Y143.418 E353.99467
G0 F3600 X103.82 Y143.418
G1 F1200 X96.579 Y136.177 E354.54133
G0 F3600 X96.579 Y136.743
G1 F1200 X103.255 Y143.418 E355.04529
G0 F3600 X102.689 Y143.418
G1 F1200 X96.579 Y137.308 E355.50656
G0 F3600 X96.579 Y137.874
G1 F1200 X102.123 Y143.418 E355.9251
G0 F3600 X101.558 Y143.418
G1 F1200 X96.579 Y138.44 E356.30095
G0 F3600 X96.579 Y139.005
G1 F1200 X100.992 Y143.418 E356.63411
G0 F3600 X100.426 Y143.418
G1 F1200 X96.579 Y139.571 E356.92453
G0 F3600 X96.579 Y140.137
G1 F1200 X99.861 Y143.418 E357.17227
G0 F3600 X99.295 Y143.418
G1 F1200 X96.579 Y140.702 E357.37731
G0 F3600 X96.579 Y141.268
G1 F1200 X98.729 Y143.418 E357.53962
G0 F3600 X98.164 Y143.418
G1 F1200 X96.579 Y141.834 E357.65924
G0 F3600 X96.579 Y142.399
G1 F1200 X97.598 Y143.418 E357.73617
G0 F3600 X97.032 Y143.418
G1 F1200 X96.579 Y142.965 E357.77037
;MESH:NONMESH
G0 F540 X96.579 Y142.965 Z0.7
G0 F3600 X96.1 Y142.965
G0 X96 Y96
;TIME_ELAPSED:347.426938
;LAYER:1
M106 S127.5
;TYPE:WALL-INNER
;MESH:xyzCalibration_cube.stl
G1 F1800 X96 Y144 E361.18685
G1 X144 Y144 E364.60333
G1 X144 Y120 E366.31157
G1 X144 Y96 E368.01981
G1 X96 Y96 E371.43629
G0 F5400 X95.6 Y95.6
G1 F1800 X95.6 Y144.4 E374.90972
G1 X144.4 Y144.4 E378.38314
G1 X144.4 Y120 E380.11985
G1 X144.4 Y95.6 E381.85656
G1 X95.6 Y95.6 E385.32998
G0 F5400 X95.2 Y95.2
;TYPE:WALL-OUTER
G1 F1200 X95.2 Y144.8 E388.86035
G1 X144.8 Y144.8 E392.39071
G1 X144.8 Y120 E394.15589
G1 X144.8 Y95.2 E395.92108
G1 X95.2 Y95.2 E399.45144
G0 F5400 X95.2 Y95.4
G0 X95.87 Y95.87
